X:1
T:Title
%%score { ( 1 4 5 ) | ( 2 3 6 ) }
L:1/8
Q:1/4=100
M:6/8
K:F
V:1 treble nm="Grand Piano"
V:4 treble 
V:5 treble 
V:2 bass 
V:3 bass 
V:6 bass 
V:1
 [CAc]3 [D_A=B][=Ac][_Ad] | [Ac]3 A3 | F2 E F2 [EG] | [FA]6 | [FB]3 Bc[Fd] | [Fc]3 [A,FA]3 | %6
w: George~Stebbins * * *||||||
 [=B,FA]2 [B,FG] [B,F]2 [B,FA] | [EG]6 | c3 =Bcd | c3 A3 | F2 E F2 [EG] | [FA]6 | [FB]3 Bc[Fd] | %13
w: |||||||
 [Fc]3 [A,FA]3 | [DFG]2 [DFA] [DEB]2 [B,CE] | [A,CF]6 | [CEG]3 [G,CE]2 [CEG] | [Ec]3- [Ec]2 [EG] | %18
w: |||||
 .e6 | [Ec]3- [Ec]2 [Ec] | [EB]2 [EB] BAG | A3- A2 A | [EG]2 [EG] GF[G,CE] | [C_EF]6 | %24
w: ||||||
 [B,DF]3 [DB][Ec][Fd] | .c6 | %26
w: ||
 [CA]3- [CA]GA[Q:1/4=99][Q:1/4=97][Q:1/4=96][Q:1/4=94][Q:1/4=93][Q:1/4=91][Q:1/4=90][Q:1/4=88][Q:1/4=87][Q:1/4=85][Q:1/4=84][Q:1/4=82][Q:1/4=81][Q:1/4=79][Q:1/4=78][Q:1/4=76] | %27
w: |
 F6 |] %28
w: |
V:2
 F,3 z C[F,=B,] | [F,C]3 [F,CF]3 | [C,A,]2 [C,G,C] [C,A,C]2 [C,C] | [F,C]6 | %4
 [D,B,]3 [D,B,][C,A,][B,,B,] | [C,A,]3 D,3 | G,2 G, G,,2 G,, | C,6 | %8
 [F,A,F]3 [F,F]-[F,=A,F][F,B,F] | [F,A,F]3 [F,C]3 | [C,A,C]2 [C,G,C] [C,A,C]2 [C,C] | [F,C]6 | %12
 [D,B,]3 [D,B,][C,A,][B,,B,] | [C,A,]3 D,3 | B,,2 A,, G,,2 C, | F,6 | C,3 C,2 C, | %17
 [C,G,]3- [C,G,]2 [C,C] | [G,G]3- [G,-G][G,F][G,=B,F] | [C,C]3- [C,C]2 [C,G,] | z3 .G,3 | %21
 [F,C]3- [F,C]2 [F,CF] | z3 .[C,C]3 | A,,6 | B,,3 [B,,F,]2 [B,,B,] | .A,6 | z3 .E3 | [F,A,C]6 |] %28
V:3
 z3 .F,3 | x6 | x6 | x6 | x6 | x6 | x6 | x6 | z3 ._A,3 | x6 | x6 | x6 | x6 | x6 | x6 | x6 | x6 | %17
 x6 | C3 z3 | x6 | [C,G,]2 [C,G,] [C,C]-[C,F,C][C,E,C] | x6 | [C,B,]2 [C,B,] B,A,B,, | x6 | x6 | %25
 C,3- C,-[C,C]G,, | z3 z B,[C,C] | x6 |] %28
V:4
 x6 | x6 | x6 | x6 | z3 .F3 | x6 | x6 | C3 .B,3 | x6 | x6 | x6 | x6 | z3 .F3 | x6 | x6 | x6 | x6 | %17
 x6 | z3 z dG | x6 | x6 | x6 | x6 | x6 | x6 | F3- F-[FA][DFB] | F3 z3 | x6 |] %28
V:5
 x6 | x6 | x6 | x6 | x6 | x6 | x6 | x6 | x6 | x6 | x6 | x6 | x6 | x6 | x6 | x6 | x6 | x6 | %18
 z3 .=B,3 | x6 | x6 | x6 | x6 | x6 | x6 | x6 | x6 | x6 |] %28
V:6
 x6 | x6 | x6 | x6 | x6 | x6 | x6 | x6 | x6 | x6 | x6 | x6 | x6 | x6 | x6 | x6 | x6 | x6 | x6 | %19
 x6 | x6 | x6 | x6 | x6 | x6 | x6 | C,6 | x6 |] %28

